X: 68
T:Petticoat wag
M:6/8
L:1/8
Q:110
R:Jig
K:GDor
d2c B>cA|G2A ^F3|G2A B3|-B2c d3|dfe f>ga|g2g f2d|d>ed c2A|B2c d3||
f2g a>ga|b2d f3|A2B c>Bc|d2e f>ed|g3-g2e|a3-a2f|b>ag g>a^f|g3-g3||

